X:626
T: GRUENE PETERSILIE
N: E0574
O: Europa, Mitteleuropa, Deutschland, Uckermark
R: Liebes - Lied
M: 2/4
L: 1/8
K: F
 | FGAB | c2cc | defd | d2c
A | c2BB | G2GG | BAAA | F2z
A | c2BB | G3G | F2EF | c3z |
B2B2 | G2GG | A2A2 | F2z2

@@@ Tune index: 4276
